svg/editor/pencil_3_fill.svg

<svg xmlns="http://www.w3.org/2000/svg" width="24" height="24" viewBox="0 0 24 24"><g fill="none"><path d="M24,0 L24,24 L0,24 L0,0 L24,0 Z M12.5935,23.2578 L12.5819,23.2595 L12.5109,23.295 L12.4919,23.2987 L12.4767,23.295 L12.4057,23.2595 C12.3958,23.2564 12.387,23.259 12.3821,23.2649 L12.378,23.2758 L12.3609,23.7031 L12.3659,23.7235 L12.3769,23.7357 L12.4805,23.8097 L12.4953,23.8136 L12.5071,23.8097 L12.6107,23.7357 L12.6233,23.7197 L12.6267,23.7031 L12.6096,23.2758 C12.6076,23.2657 12.601,23.2593 12.5935,23.2578 Z M12.8584,23.1453 L12.8445,23.1473 L12.6598,23.2397 L12.6499,23.2499 L12.6472,23.2611 L12.6651,23.6906 L12.6699,23.7034 L12.6784,23.7105 L12.8793,23.8032 C12.8914,23.8069 12.9022,23.803 12.9078,23.7952 L12.9118,23.7812 L12.8777,23.1665 C12.8753,23.1546 12.8674,23.147 12.8584,23.1453 Z M12.143,23.1473 C12.1332,23.1424 12.1222,23.1453 12.1156,23.1526 L12.1099,23.1665 L12.0758,23.7812 C12.0751,23.7927 12.0828,23.8019 12.0926,23.8046 L12.1083,23.8032 L12.3092,23.7105 L12.3186,23.7024 L12.3225,23.6906 L12.3404,23.2611 L12.3372,23.2485 L12.3278,23.2397 L12.143,23.1473 Z"/><path fill="#09244B" d="M18.293,17.2931 C18.6835,16.9026 19.3167,16.9026 19.7072,17.2931 C20.0676615,17.6535615 20.0953893,18.2208207 19.7903834,18.6130973 L19.7072,18.7073 L18.2072,20.2073 C16.9883,21.4263 15.0119,21.4263 13.793,20.2073 C13.3863786,19.8006786 12.7451403,19.7716342 12.3050022,20.1201668 L12.2072,20.2073 L11.7072,20.7073 C11.3167,21.0979 10.6835,21.0979 10.293,20.7073 C9.93251077,20.3468385 9.90478083,19.7796645 10.2098102,19.3873224 L10.293,19.2931 L10.793,18.7931 C12.0119,17.5742 13.9883,17.5742 15.2072,18.7931 C15.6138214,19.1997214 16.2550597,19.2287658 16.6951978,18.8802332 L16.793,18.7931 L18.293,17.2931 Z M16.4823,3.9837 C17.4586,3.00739 19.0416,3.00739 20.0179,3.9837 C20.9517522,4.91756174 20.9923544,6.40642234 20.1397068,7.38854485 L20.0179,7.51923 L8.44244,19.0947 C8.297904,19.23918 8.125752,19.3523 7.93684352,19.4275576 L7.79219,19.4768 L4.95456,20.284 C4.23617905,20.4882857 3.56985252,19.8659955 3.69331499,19.1546738 L3.71785,19.0474 L4.52478,16.2095 C4.5807,16.01286 4.6760696,15.830236 4.80450416,15.6725336 L4.90693,15.5591 L16.4823,3.9837 Z"/></g></svg>

<svg xmlns="http://www.w3.org/2000/svg" width="24" height="24"><g fill="none"><path d="M24 0v24H0V0zM12.594 23.258l-.012.002-.071.035-.02.004-.014-.004-.071-.036c-.01-.003-.019 0-.024.006l-.004.01-.017.428.005.02.01.013.104.074.015.004.012-.004.104-.074.012-.016.004-.017-.017-.427c-.002-.01-.009-.017-.016-.018m.264-.113-.014.002-.184.093-.01.01-.003.011.018.43.005.012.008.008.201.092c.012.004.023 0 .029-.008l.004-.014-.034-.614c-.003-.012-.01-.02-.02-.022m-.715.002a.023.023 0 0 0-.027.006l-.006.014-.034.614c0 .012.007.02.017.024l.015-.002.201-.093.01-.008.003-.011.018-.43-.003-.012-.01-.01z"/><path fill="#09244B" d="M18.293 17.293a1 1 0 0 1 1.497 1.32l-.083.094-1.5 1.5a3.121 3.121 0 0 1-4.414 0 1.122 1.122 0 0 0-1.488-.087l-.098.087-.5.5a1 1 0 0 1-1.497-1.32l.083-.094.5-.5a3.121 3.121 0 0 1 4.414 0 1.122 1.122 0 0 0 1.488.087l.098-.087zm-1.81-13.31A2.5 2.5 0 0 1 20.14 7.39l-.122.13L8.442 19.095a1.501 1.501 0 0 1-.505.333l-.145.049-2.837.807a1.001 1.001 0 0 1-1.262-1.13l.025-.107.807-2.838a1.5 1.5 0 0 1 .28-.536l.102-.114z"/></g></svg>
